symbols/web/pie_chart/materialsymbolsoutlined/pie_chart_wght700gradN25_20px.svg

<svg xmlns="http://www.w3.org/2000/svg" height="20" width="20"><path d="M11.312 8.688h4.771q-.312-1.834-1.625-3.146-1.312-1.313-3.146-1.625Zm-2.604 7.395V3.917q-2.146.437-3.541 2.135Q3.771 7.75 3.771 10t1.396 3.938q1.395 1.687 3.541 2.145Zm2.604 0q1.813-.333 3.126-1.656 1.312-1.323 1.645-3.135h-4.771ZM10 10Zm0 8.833q-1.833 0-3.438-.698-1.604-.697-2.802-1.895t-1.895-2.802Q1.167 11.833 1.167 10q0-1.833.698-3.437.697-1.605 1.895-2.803t2.802-1.895Q8.167 1.167 10 1.167q1.833 0 3.448.698 1.614.697 2.812 1.885 1.198 1.188 1.886 2.802.687 1.615.687 3.448 0 1.854-.698 3.458-.697 1.604-1.885 2.802-1.188 1.198-2.802 1.886-1.615.687-3.448.687Z"/></svg>

<svg xmlns="http://www.w3.org/2000/svg" height="20" width="20"><path d="M11.312 8.688H16.083Q15.771 6.854 14.458 5.542Q13.146 4.229 11.312 3.917ZM8.708 16.083V3.917Q6.562 4.354 5.167 6.052Q3.771 7.75 3.771 10Q3.771 12.25 5.167 13.938Q6.562 15.625 8.708 16.083ZM11.312 16.083Q13.125 15.75 14.438 14.427Q15.75 13.104 16.083 11.292H11.312ZM10 10Q10 10 10 10Q10 10 10 10Q10 10 10 10Q10 10 10 10Q10 10 10 10Q10 10 10 10Q10 10 10 10Q10 10 10 10Q10 10 10 10Q10 10 10 10Q10 10 10 10Q10 10 10 10Q10 10 10 10Q10 10 10 10Q10 10 10 10Q10 10 10 10ZM10 18.833Q8.167 18.833 6.562 18.135Q4.958 17.438 3.76 16.24Q2.562 15.042 1.865 13.438Q1.167 11.833 1.167 10Q1.167 8.167 1.865 6.563Q2.562 4.958 3.76 3.76Q4.958 2.562 6.562 1.865Q8.167 1.167 10 1.167Q11.833 1.167 13.448 1.865Q15.062 2.562 16.26 3.75Q17.458 4.938 18.146 6.552Q18.833 8.167 18.833 10Q18.833 11.854 18.135 13.458Q17.438 15.062 16.25 16.26Q15.062 17.458 13.448 18.146Q11.833 18.833 10 18.833Z"/></svg>
